src/xmb/monochrome/Handheld Electronic Game.svg

<svg xmlns="http://www.w3.org/2000/svg" xml:space="preserve" width="64" height="64" viewBox="0 128 64 64"><path d="M4 14c-.554 0-1 .446-1 1v34c0 .554.446 1 1 1h56c.554 0 1-.446 1-1V15c0-.554-.446-1-1-1zm14 5h28c.554 0 1 .446 1 1v22c0 .554-.446 1-1 1H18c-.554 0-1-.446-1-1V20c0-.554.446-1 1-1m-7 20a2 2 0 1 1 0 4 2 2 0 0 1 0-4m42 0a2 2 0 1 1 0 4 2 2 0 0 1 0-4m-19 6h2c.554 0 1 .446 1 1s-.446 1-1 1h-2c-.554 0-1-.446-1-1s.446-1 1-1m5 0h2c.554 0 1 .446 1 1s-.446 1-1 1h-2c-.554 0-1-.446-1-1s.446-1 1-1m5 0h2c.554 0 1 .446 1 1s-.446 1-1 1h-2c-.554 0-1-.446-1-1s.446-1 1-1" style="fill:#fff;fill-opacity:1;stroke:none" transform="translate(0 128)"/></svg>

<?xml version="1.0" encoding="UTF-8" standalone="no"?>
<!-- Generator: Adobe Illustrator 16.0.0, SVG Export Plug-In . SVG Version: 6.00 Build 0)  -->

<svg
   xmlns:dc="http://purl.org/dc/elements/1.1/"
   xmlns:cc="http://creativecommons.org/ns#"
   xmlns:rdf="http://www.w3.org/1999/02/22-rdf-syntax-ns#"
   xmlns:svg="http://www.w3.org/2000/svg"
   xmlns="http://www.w3.org/2000/svg"
   xmlns:sodipodi="http://sodipodi.sourceforge.net/DTD/sodipodi-0.dtd"
   xmlns:inkscape="http://www.inkscape.org/namespaces/inkscape"
   version="1.1"
   id="svg2"
   inkscape:export-filename="/home/kivutar/Bureau/lakka-menu/reload.png"
   inkscape:export-xdpi="90"
   inkscape:version="0.48.5 r10040"
   inkscape:export-ydpi="90"
   sodipodi:docname="Game &amp; Watch Version 2.svg"
   x="0px"
   y="0px"
   width="64px"
   height="64px"
   viewBox="0 128 64 64"
   enable-background="new 0 128 64 64"
   xml:space="preserve"><metadata
     id="metadata3350"><rdf:RDF><cc:Work
         rdf:about=""><dc:format>image/svg+xml</dc:format><dc:type
           rdf:resource="http://purl.org/dc/dcmitype/StillImage" /><dc:title></dc:title></cc:Work></rdf:RDF></metadata><defs
     id="defs3348" /><sodipodi:namedview
     id="base"
     pagecolor="#808080"
     inkscape:cy="29.553951"
     showgrid="true"
     inkscape:cx="36.829162"
     inkscape:zoom="11.2"
     borderopacity="1.0"
     bordercolor="#666666"
     inkscape:window-height="836"
     inkscape:document-units="px"
     inkscape:window-width="1440"
     inkscape:window-maximized="1"
     inkscape:pageshadow="2"
     inkscape:pageopacity="0"
     inkscape:window-y="27"
     inkscape:window-x="0"
     inkscape:current-layer="svg2"><inkscape:grid
       type="xygrid"
       id="grid2985"
       enabled="true"
       visible="true"
       empspacing="4"
       snapvisiblegridlinesonly="true" /></sodipodi:namedview><path
     style="fill:#ffffff;fill-opacity:1;stroke:none"
     d="M 4 14 C 3.446 14 3 14.446 3 15 L 3 49 C 3 49.554 3.446 50 4 50 L 60 50 C 60.554 50 61 49.554 61 49 L 61 15 C 61 14.446 60.554 14 60 14 L 4 14 z M 18 19 L 46 19 C 46.554 19 47 19.446 47 20 L 47 42 C 47 42.554 46.554 43 46 43 L 18 43 C 17.446 43 17 42.554 17 42 L 17 20 C 17 19.446 17.446 19 18 19 z M 11 39 C 12.104569 39 13 39.895431 13 41 C 13 42.104569 12.104569 43 11 43 C 9.8954305 43 9 42.104569 9 41 C 9 39.895431 9.8954305 39 11 39 z M 53 39 C 54.104569 39 55 39.895431 55 41 C 55 42.104569 54.104569 43 53 43 C 51.895431 43 51 42.104569 51 41 C 51 39.895431 51.895431 39 53 39 z M 34 45 L 36 45 C 36.554 45 37 45.446 37 46 C 37 46.554 36.554 47 36 47 L 34 47 C 33.446 47 33 46.554 33 46 C 33 45.446 33.446 45 34 45 z M 39 45 L 41 45 C 41.554 45 42 45.446 42 46 C 42 46.554 41.554 47 41 47 L 39 47 C 38.446 47 38 46.554 38 46 C 38 45.446 38.446 45 39 45 z M 44 45 L 46 45 C 46.554 45 47 45.446 47 46 C 47 46.554 46.554 47 46 47 L 44 47 C 43.446 47 43 46.554 43 46 C 43 45.446 43.446 45 44 45 z "
     transform="translate(0,128)"
     id="rect3047" /></svg>
